X:174
T:Where Have All The Flowers Gone?
Z:Jack Campin, http://www.campin.me.uk/
C:Pete Seeger 
M:C
L:1/8
Q:1/4=124
K:C
z2 GA G3 E|ED3   C4|z2 c4    d2|(B A2) G- G4 |
z2 GA G3 E|ED3   C4|z2 F2 F3  E| D8          |
z2 GA G3 E|ED3   C4|c2 c2 d c3 | B2   AG- G4 |
z2 A2 F2D2|CE2G- G4|z2 A2 F2 E2| D3    D  C4-|C8|]

